packages/dnb-ui-lib/assets/icons/apple_watch.svg

<svg width="16" height="16" viewBox="0 0 16 16" fill="none" xmlns="http://www.w3.org/2000/svg">
<path d="M5.77778 12.2V14.0667C5.77778 14.3142 5.87143 14.5516 6.03813 14.7266C6.20483 14.9017 6.43092 15 6.66667 15H9.33333C9.56908 15 9.79517 14.9017 9.96187 14.7266C10.1286 14.5516 10.2222 14.3142 10.2222 14.0667V12.2M5.77778 12.2H10.2222M5.77778 12.2C4.79594 12.2 4 11.3643 4 10.3333V5.66667C4 4.63573 4.79594 3.8 5.77778 3.8M10.2222 12.2C11.2041 12.2 12 11.3643 12 10.3333V5.66667C12 4.63573 11.2041 3.8 10.2222 3.8M10.2222 3.8V1.93333C10.2222 1.6858 10.1286 1.4484 9.96187 1.27337C9.79517 1.09833 9.56908 1 9.33333 1H6.66667C6.43092 1 6.20483 1.09833 6.03813 1.27337C5.87143 1.4484 5.77778 1.6858 5.77778 1.93333V3.8M10.2222 3.8H5.77778" stroke="black" stroke-width="1.5" stroke-linecap="round" stroke-linejoin="round"/>
</svg>

<svg width="16" height="16" viewBox="0 0 16 16" fill="none" xmlns="http://www.w3.org/2000/svg"><path d="M5.778 12.2v1.867c0 .247.093.485.26.66a.868.868 0 00.629.273h2.666a.868.868 0 00.629-.273.957.957 0 00.26-.66V12.2m-4.444 0h4.444m-4.444 0C4.796 12.2 4 11.364 4 10.333V5.667C4 4.636 4.796 3.8 5.778 3.8m4.444 8.4c.982 0 1.778-.836 1.778-1.867V5.667c0-1.031-.796-1.867-1.778-1.867m0 0V1.933a.957.957 0 00-.26-.66A.868.868 0 009.333 1H6.667a.868.868 0 00-.629.273.958.958 0 00-.26.66V3.8m4.444 0H5.778" stroke="#000" stroke-width="1.5" stroke-linecap="round" stroke-linejoin="round"/></svg>
